src/xmb/monochrome/images.svg

<svg xmlns="http://www.w3.org/2000/svg" xml:space="preserve" width="64" height="64" viewBox="0 128 64 64"><path d="M32 5C9.585 5 5 9.555 5 32.002S9.514 59 32 59c22.489 0 27-4.542 27-26.998C59 9.544 54.415 5 32 5m0 9h12c2.21 0 4 1.79 4 4 2.21 0 4 1.79 4 4v20c0 2.21-1.79 4-4 4H16c-2.21 0-4-1.79-4-4V22c0-2.21 1.79-4 4-4h12c0-2.21 1.79-4 4-4m-14 8c-1.106 0-2 .894-2 2s.894 2 2 2 2-.894 2-2-.894-2-2-2m20 0c-5.524 0-10 4.48-10 10s4.476 10 10 10 10-4.48 10-10-4.476-10-10-10m0 4c3.316 0 6 2.684 6 6s-2.684 6-6 6-6-2.684-6-6 2.684-6 6-6" style="fill:#fff" transform="translate(0 128)"/></svg>

<?xml version="1.0" encoding="UTF-8" standalone="no"?>
<!-- Generator: Adobe Illustrator 16.0.0, SVG Export Plug-In . SVG Version: 6.00 Build 0)  -->

<svg
   xmlns:dc="http://purl.org/dc/elements/1.1/"
   xmlns:cc="http://creativecommons.org/ns#"
   xmlns:rdf="http://www.w3.org/1999/02/22-rdf-syntax-ns#"
   xmlns:svg="http://www.w3.org/2000/svg"
   xmlns="http://www.w3.org/2000/svg"
   xmlns:sodipodi="http://sodipodi.sourceforge.net/DTD/sodipodi-0.dtd"
   xmlns:inkscape="http://www.inkscape.org/namespaces/inkscape"
   version="1.1"
   id="svg2"
   inkscape:export-filename="/home/kivutar/Bureau/lakka-menu/reload.png"
   inkscape:export-xdpi="90"
   inkscape:version="0.91 r13725"
   inkscape:export-ydpi="90"
   sodipodi:docname="videos.svg"
   x="0px"
   y="0px"
   width="64px"
   height="64px"
   viewBox="0 128 64 64"
   enable-background="new 0 128 64 64"
   xml:space="preserve"><metadata
     id="metadata8"><rdf:RDF><cc:Work
         rdf:about=""><dc:format>image/svg+xml</dc:format><dc:type
           rdf:resource="http://purl.org/dc/dcmitype/StillImage" /><dc:title></dc:title></cc:Work></rdf:RDF></metadata><defs
     id="defs6" /><sodipodi:namedview
     pagecolor="#808080"
     bordercolor="#666666"
     borderopacity="1"
     objecttolerance="10"
     gridtolerance="10"
     guidetolerance="10"
     inkscape:pageopacity="0"
     inkscape:pageshadow="2"
     inkscape:window-width="1440"
     inkscape:window-height="836"
     id="namedview4"
     showgrid="true"
     inkscape:zoom="7.375"
     inkscape:cx="27.896531"
     inkscape:cy="27.687987"
     inkscape:window-x="0"
     inkscape:window-y="27"
     inkscape:window-maximized="1"
     inkscape:current-layer="svg2"><inkscape:grid
       type="xygrid"
       id="grid4172"
       spacingx="4"
       spacingy="4"
       empspacing="4" /></sodipodi:namedview><path
     style="fill:#ffffff"
     d="M 32 5 C 9.585 5 5 9.5549531 5 32.001953 C 5 54.448953 9.514 59 32 59 C 54.489 59 59 54.457953 59 32.001953 C 59 9.5439531 54.415 5 32 5 z M 32 14 L 44 14 C 46.21 14 48 15.79 48 18 C 50.21 18 52 19.79 52 22 L 52 42 C 52 44.21 50.21 46 48 46 L 16 46 C 13.79 46 12 44.21 12 42 L 12 22 C 12 19.79 13.79 18 16 18 L 28 18 C 28 15.79 29.79 14 32 14 z M 18 22 C 16.894 22 16 22.894 16 24 C 16 25.106 16.894 26 18 26 C 19.106 26 20 25.106 20 24 C 20 22.894 19.106 22 18 22 z M 38 22 C 32.476 22 28 26.48 28 32 C 28 37.52 32.476 42 38 42 C 43.524 42 48 37.52 48 32 C 48 26.48 43.524 22 38 22 z M 38 26 C 41.316 26 44 28.684 44 32 C 44 35.316 41.316 38 38 38 C 34.684 38 32 35.316 32 32 C 32 28.684 34.684 26 38 26 z "
     transform="translate(0,128)"
     id="Utilities" /></svg>
